X: 2288
T: Back Of The Haggard, The
R: hornpipe
M: 4/4
K: Gmajor
|:(3def|gdgb afdf|ge (3cde dBGB|cAce dBdg|(3aba (3gfe dcBA|
GDGB AFAc|BGBc dBGB||d2 (3gfe (3ded (3cBA|(3GAG (3FGA G2:|
|:ge|d3 f afdf|agfe dgbd'|(3c'd'c' (3ac'a (3bd'b (3gbg|agfe dcBA|
GDGB AFAc|BGBc dBGB|d2 ge (3ded (3cBA|(3GAG (3FGA G2:|

